dist/icons/about_me/mobile_dev.svg

<svg width="14" height="25" viewBox="0 0 14 25" fill="none" xmlns="http://www.w3.org/2000/svg">
<path d="M11.7188 0H1.5625C1.14827 0.000542615 0.751153 0.165337 0.458245 0.458245C0.165337 0.751153 0.000542615 1.14827 0 1.5625V22.6562C0.000542615 23.0705 0.165337 23.4676 0.458245 23.7605C0.751153 24.0534 1.14827 24.2182 1.5625 24.2188H11.7188C12.133 24.2182 12.5301 24.0534 12.823 23.7605C13.1159 23.4676 13.2807 23.0705 13.2812 22.6562V1.5625C13.2807 1.14827 13.1159 0.751153 12.823 0.458245C12.5301 0.165337 12.133 0.000542615 11.7188 0ZM8.46875 0.78125L8.24902 1.5625H4.99268L4.79736 0.78125H8.46875ZM12.5 22.6562C12.4997 22.8634 12.4173 23.0619 12.2709 23.2084C12.1244 23.3548 11.9259 23.4372 11.7188 23.4375H1.5625C1.35538 23.4372 1.15683 23.3548 1.01037 23.2084C0.863918 23.0619 0.781521 22.8634 0.78125 22.6562V1.5625C0.781521 1.35538 0.863918 1.15683 1.01037 1.01037C1.15683 0.863918 1.35538 0.781521 1.5625 0.78125H3.9917L4.30859 2.04785C4.32972 2.13236 4.37848 2.20738 4.44713 2.261C4.51579 2.31461 4.60039 2.34374 4.6875 2.34375H8.54492C8.63005 2.34375 8.71285 2.31594 8.78071 2.26455C8.84858 2.21317 8.89781 2.14102 8.9209 2.05908L9.28027 0.78125H11.7188C11.9259 0.781521 12.1244 0.863918 12.2709 1.01037C12.4173 1.15683 12.4997 1.35538 12.5 1.5625V22.6562Z" fill="black"/>
<path d="M4.6875 21.875H1.95312C1.84952 21.875 1.75017 21.9162 1.67691 21.9894C1.60365 22.0627 1.5625 22.162 1.5625 22.2656C1.5625 22.3692 1.60365 22.4686 1.67691 22.5418C1.75017 22.6151 1.84952 22.6562 1.95312 22.6562H4.6875C4.7911 22.6562 4.89046 22.6151 4.96371 22.5418C5.03697 22.4686 5.07812 22.3692 5.07812 22.2656C5.07812 22.162 5.03697 22.0627 4.96371 21.9894C4.89046 21.9162 4.7911 21.875 4.6875 21.875Z" fill="black"/>
<path d="M6.25 21.875H5.85938C5.75577 21.875 5.65642 21.9162 5.58316 21.9894C5.5099 22.0627 5.46875 22.162 5.46875 22.2656C5.46875 22.3692 5.5099 22.4686 5.58316 22.5418C5.65642 22.6151 5.75577 22.6562 5.85938 22.6562H6.25C6.3536 22.6562 6.45296 22.6151 6.52621 22.5418C6.59947 22.4686 6.64062 22.3692 6.64062 22.2656C6.64062 22.162 6.59947 22.0627 6.52621 21.9894C6.45296 21.9162 6.3536 21.875 6.25 21.875Z" fill="black"/>
<path d="M8.01349 9.82123C7.9695 9.79484 7.92074 9.77737 7.87001 9.76982C7.81927 9.76227 7.76754 9.76479 7.71777 9.77723C7.668 9.78967 7.62117 9.81179 7.57996 9.84233C7.53874 9.87287 7.50394 9.91123 7.47755 9.95522L5.13379 13.8615C5.08049 13.9503 5.06466 14.0567 5.08979 14.1572C5.11492 14.2577 5.17894 14.3441 5.26778 14.3974C5.35662 14.4507 5.46299 14.4665 5.5635 14.4414C5.664 14.4163 5.75041 14.3522 5.80372 14.2634L8.14747 10.3572C8.17386 10.3132 8.19134 10.2644 8.19889 10.2137C8.20644 10.1629 8.20392 10.1112 8.19148 10.0615C8.17904 10.0117 8.15691 9.96486 8.12637 9.92364C8.09583 9.88242 8.05748 9.84762 8.01349 9.82123Z" fill="black"/>
<path d="M9.28936 9.91206C9.2573 9.87201 9.21766 9.83866 9.17271 9.81392C9.12776 9.78918 9.07838 9.77354 9.02739 9.76788C8.9244 9.75646 8.82109 9.78643 8.74019 9.85118C8.65929 9.91593 8.60743 10.0102 8.59601 10.1132C8.58459 10.2161 8.61455 10.3194 8.6793 10.4003L10.0465 12.1093L8.6793 13.8183C8.61455 13.8992 8.58459 14.0025 8.59601 14.1055C8.60743 14.2085 8.65929 14.3027 8.74019 14.3675C8.82109 14.4322 8.9244 14.4622 9.02739 14.4508C9.13037 14.4394 9.22461 14.3875 9.28936 14.3066L10.8519 12.3535C10.9073 12.2842 10.9376 12.1981 10.9376 12.1093C10.9376 12.0206 10.9073 11.9345 10.8519 11.8652L9.28936 9.91206Z" fill="black"/>
<path d="M3.99182 14.3066C4.05657 14.3875 4.15081 14.4393 4.2538 14.4508C4.35679 14.4622 4.46009 14.4322 4.54099 14.3675C4.62189 14.3027 4.67375 14.2085 4.68517 14.1055C4.69659 14.0025 4.66663 13.8992 4.60188 13.8183L3.23469 12.1093L4.60188 10.4003C4.63394 10.3603 4.6578 10.3143 4.67209 10.265C4.68638 10.2158 4.69083 10.1641 4.68517 10.1131C4.67952 10.0622 4.66388 10.0128 4.63914 9.96782C4.6144 9.92287 4.58105 9.88324 4.54099 9.85118C4.50093 9.81911 4.45495 9.79526 4.40568 9.78097C4.3564 9.76667 4.30479 9.76223 4.2538 9.76788C4.2028 9.77354 4.15342 9.78918 4.10847 9.81392C4.06352 9.83866 4.02388 9.87201 3.99182 9.91206L2.42932 11.8652C2.37385 11.9345 2.34363 12.0206 2.34363 12.1093C2.34363 12.1981 2.37385 12.2842 2.42932 12.3535L3.99182 14.3066Z" fill="black"/>
</svg>

<svg width="14" height="25" fill="none" xmlns="http://www.w3.org/2000/svg"><path d="M11.719 0H1.563A1.565 1.565 0 000 1.563v21.093a1.565 1.565 0 001.563 1.563h10.156a1.565 1.565 0 001.562-1.563V1.563A1.564 1.564 0 0011.72 0zm-3.25.781l-.22.781H4.993l-.196-.78H8.47zM12.5 22.656a.783.783 0 01-.781.782H1.563a.783.783 0 01-.782-.782V1.563A.782.782 0 011.562.78h2.43l.317 1.267a.39.39 0 00.378.296h3.858a.39.39 0 00.376-.285L9.28.781h2.438a.782.782 0 01.781.781v21.094z" fill="#000"/><path d="M4.688 21.875H1.953a.39.39 0 000 .781h2.734a.39.39 0 100-.781zM6.25 21.875h-.39a.39.39 0 000 .781h.39a.39.39 0 100-.781zM8.013 9.821a.39.39 0 00-.535.134l-2.344 3.906a.39.39 0 10.67.402l2.343-3.906a.391.391 0 00-.134-.536zM9.29 9.912a.39.39 0 00-.61.488l1.367 1.71-1.368 1.708a.39.39 0 00.61.489l1.563-1.954a.391.391 0 000-.488L9.289 9.912zM3.992 14.307a.391.391 0 00.61-.489L3.235 12.11 4.602 10.4a.39.39 0 10-.61-.488l-1.563 1.953a.39.39 0 000 .489l1.563 1.953z" fill="#000"/></svg>
